Icons/com_axelby_podax.svg

<svg viewBox="0 0 48 48" xmlns:xlink="http://www.w3.org/1999/xlink">
 <defs>
  <linearGradient id="0">
   <stop stop-opacity="0"/>
   <stop offset="1"/>
  </linearGradient>
  <linearGradient xlink:href="#0" id="1" gradientUnits="userSpaceOnUse" gradientTransform="translate(4e-7,-48)" y1="47" x2="0" y2="1"/>
  <clipPath id="2">
   <g transform="translate(0,-1004.3622)">
    <rect rx="4" y="1005.36" x="1" height="46" width="46" fill="#1890d0"/>
   </g>
  </clipPath>
  <clipPath id="3">
   <g transform="translate(0,-1004.3622)">
    <rect rx="4" y="1005.36" x="1" height="46" width="46" fill="#1890d0"/>
   </g>
  </clipPath>
 </defs>
 <g>
  <g transform="translate(0,-1004.3622)">
   <path d="m 5,1006.3622 c -2.216,0 -4,1.784 -4,4 l 0,37.25 c 0,2.216 1.784,4 4,4 l 38,0 c 2.216,0 4,-1.784 4,-4 l 0,-37.25 c 0,-2.216 -1.784,-4 -4,-4 l -38,0 z m -4,41.5 0,0.5 c 0,2.216 1.784,4 4,4 l 38,0 c 2.216,0 4,-1.784 4,-4 l 0,-0.5 c 0,2.216 -1.784,4 -4,4 l -38,0 c -2.216,0 -4,-1.784 -4,-4 z" opacity="0.02"/>
   <path d="m 1,1047.6122 0,0.25 c 0,2.216 1.784,4 4,4 l 38,0 c 2.216,0 4,-1.784 4,-4 l 0,-0.25 c 0,2.216 -1.784,4 -4,4 l -38,0 c -2.216,0 -4,-1.784 -4,-4 z" opacity="0.05"/>
   <rect width="46" height="46" x="1" y="1005.61" rx="4" opacity="0.1"/>
  </g>
 </g>
 <g>
  <g transform="translate(0,-1004.3622)">
   <rect rx="4" y="1005.36" x="1" height="46" width="46" fill="#e7a84b"/>
  </g>
 </g>
 <g>
  <rect transform="scale(1,-1)" width="46" height="46" x="1" y="-46.998" rx="4" opacity="0.1" fill="url(#1)"/>
 </g>
 <g>
  <g clip-path="url(#2)">
   <g opacity="0.1">
    <path d="m 14,16 0,6.996094 3.4375,0 c 1.121094,0 1.988281,-0.527344 2.601562,-1.113282 C 20.652344,21.296875 21,20.460938 21,19.375 21,18.296875 20.652344,17.46875 20.039062,16.878906 19.425781,16.292969 18.558594,16 17.4375,16 L 14,16 m -2,-2 5.4375,0 C 21.351562,14.0625 22.996094,16.039062 23,19.378906 23,23 20.664062,24.957031 17.4375,25 L 14,25 l 0,7 -2,0 0,-18"/>
    <path d="M 37.75,19 33,25.066406 38,32 35.410156,32 31.5,26.695312 27.636719,32 25.046875,32 30,25 25.488281,19 28.078125,19 31.5,23.304688 35.160156,19 37.75,19"/>
   </g>
  </g>
 </g>
 <g>
  <g clip-path="url(#3)">
   <g transform="translate(0,-1)">
    <path d="m 14,16 0,6.996094 3.4375,0 c 1.121094,0 1.988281,-0.527344 2.601562,-1.113282 C 20.652344,21.296875 21,20.460938 21,19.375 21,18.296875 20.652344,17.46875 20.039062,16.878906 19.425781,16.292969 18.558594,16 17.4375,16 L 14,16 m -2,-2 5.4375,0 C 21.351562,14.0625 22.996094,16.039062 23,19.378906 23,23 20.664062,24.957031 17.4375,25 L 14,25 l 0,7 -2,0 0,-18" fill="#2d2d2d"/>
    <path d="M 37.75,19 33,25.066406 38,32 35.410156,32 31.5,26.695312 27.636719,32 25.046875,32 30,25 25.488281,19 28.078125,19 31.5,23.304688 35.160156,19 37.75,19" fill="#2d2d2d"/>
   </g>
  </g>
 </g>
 <g>
  <g transform="translate(0,-1004.3622)">
   <path d="m 1,1043.3622 0,4 c 0,2.216 1.784,4 4,4 l 38,0 c 2.216,0 4,-1.784 4,-4 l 0,-4 c 0,2.216 -1.784,4 -4,4 l -38,0 c -2.216,0 -4,-1.784 -4,-4 z" opacity="0.1"/>
  </g>
 </g>
</svg>

<svg viewBox="0 0 48 48"><defs><linearGradient id="linearGradient3764" x1="1" x2="47" gradientUnits="userSpaceOnUse" gradientTransform="translate(-48.000001,0.00221467)"><stop stop-color="#e59e39" stop-opacity="1"/><stop offset="1" stop-color="#e7a84b" stop-opacity="1"/></linearGradient><clipPath id="clipPath-020233059"><g transform="translate(0,-1004.3622)"><rect rx="4" y="1005.36" x="1" height="46" width="46" fill="#1890d0"/></g></clipPath><clipPath id="clipPath-044048403"><g transform="translate(0,-1004.3622)"><rect rx="4" y="1005.36" x="1" height="46" width="46" fill="#1890d0"/></g></clipPath></defs><g><path d="m 1 43 l 0 0.25 c 0 2.216 1.784 4 4 4 l 38 0 c 2.216 0 4 -1.784 4 -4 l 0 -0.25 c 0 2.216 -1.784 4 -4 4 l -38 0 c -2.216 0 -4 -1.784 -4 -4 z m 0 0.5 l 0 0.5 c 0 2.216 1.784 4 4 4 l 38 0 c 2.216 0 4 -1.784 4 -4 l 0 -0.5 c 0 2.216 -1.784 4 -4 4 l -38 0 c -2.216 0 -4 -1.784 -4 -4 z" opacity="0.02"/><path d="m 1 43.25 l 0 0.25 c 0 2.216 1.784 4 4 4 l 38 0 c 2.216 0 4 -1.784 4 -4 l 0 -0.25 c 0 2.216 -1.784 4 -4 4 l -38 0 c -2.216 0 -4 -1.784 -4 -4 z" opacity="0.05"/><path d="m 1 43 l 0 0.25 c 0 2.216 1.784 4 4 4 l 38 0 c 2.216 0 4 -1.784 4 -4 l 0 -0.25 c 0 2.216 -1.784 4 -4 4 l -38 0 c -2.216 0 -4 -1.784 -4 -4 z" opacity="0.1"/></g><g><rect width="46" height="46" x="-47" y="1" rx="4" transform="matrix(0,-1,1,0,0,0)" fill="url(#linearGradient3764)" fill-opacity="1"/></g><g><g clip-path="url(#clipPath-020233059)"><g opacity="0.1"><!-- color: #e7a84b --><path d="m 14 16 0 6.996 3.438 0 c 1.121 0 1.988 -0.527 2.602 -1.113 c 0.613 -0.586 0.961 -1.422 0.961 -2.508 0 -1.078 -0.348 -1.906 -0.961 -2.496 -0.613 -0.586 -1.48 -0.879 -2.602 -0.879 l -3.438 0 m -2 -2 5.438 0 c 3.914 0.063 5.559 2.039 5.563 5.379 0 3.621 -2.336 5.578 -5.563 5.621 l -3.438 0 l 0 7 -2 0 0 -18" fill="#000"/><path d="m 37.75 19 -4.75 6.066 5 6.934 -2.59 0 -3.91 -5.305 -3.863 5.305 -2.59 0 4.953 -7 -4.512 -6 2.59 0 3.422 4.305 3.66 -4.305 2.59 0" fill="#000"/></g></g></g><g><g clip-path="url(#clipPath-044048403)"><g transform="translate(0,-1)"><!-- color: #e7a84b --><path d="m 14 16 0 6.996 3.438 0 c 1.121 0 1.988 -0.527 2.602 -1.113 c 0.613 -0.586 0.961 -1.422 0.961 -2.508 0 -1.078 -0.348 -1.906 -0.961 -2.496 -0.613 -0.586 -1.48 -0.879 -2.602 -0.879 l -3.438 0 m -2 -2 5.438 0 c 3.914 0.063 5.559 2.039 5.563 5.379 0 3.621 -2.336 5.578 -5.563 5.621 l -3.438 0 l 0 7 -2 0 0 -18" fill="#2d2d2d"/><path d="m 37.75 19 -4.75 6.066 5 6.934 -2.59 0 -3.91 -5.305 -3.863 5.305 -2.59 0 4.953 -7 -4.512 -6 2.59 0 3.422 4.305 3.66 -4.305 2.59 0" fill="#2d2d2d"/></g></g></g><g><g transform="translate(0,-1004.3622)"><path d="m 1 1043.36 0 4 c 0 2.216 1.784 4 4 4 l 38 0 c 2.216 0 4 -1.784 4 -4 l 0 -4 c 0 2.216 -1.784 4 -4 4 l -38 0 c -2.216 0 -4 -1.784 -4 -4 z" opacity="0.1"/></g></g></svg>
